assets/badgeCards.svg

<svg width="50" height="51" viewBox="0 0 50 51" fill="none" xmlns="http://www.w3.org/2000/svg">
<rect y="0.723633" width="50" height="50" rx="25" fill="#E8F2EE"/>
<path d="M14.5002 15.2236H35.5002C35.8096 15.2236 36.1063 15.3465 36.3251 15.5653C36.5439 15.7841 36.6668 16.0809 36.6668 16.3903V35.057C36.6668 35.3664 36.5439 35.6631 36.3251 35.8819C36.1063 36.1007 35.8096 36.2236 35.5002 36.2236H14.5002C14.1907 36.2236 13.894 36.1007 13.6752 35.8819C13.4564 35.6631 13.3335 35.3664 13.3335 35.057V16.3903C13.3335 16.0809 13.4564 15.7841 13.6752 15.5653C13.894 15.3465 14.1907 15.2236 14.5002 15.2236ZM34.3335 25.7236H15.6668V33.8903H34.3335V25.7236ZM34.3335 21.057V17.557H15.6668V21.057H34.3335Z" fill="#5BB5A2"/>
</svg>

<svg xmlns="http://www.w3.org/2000/svg" width="50" height="51" fill="none"><rect width="50" height="50" y=".724" fill="#E8F2EE" rx="25"/><path fill="#5BB5A2" d="M14.5 15.224h21a1.167 1.167 0 0 1 1.167 1.166v18.667a1.167 1.167 0 0 1-1.167 1.167h-21a1.167 1.167 0 0 1-1.166-1.167V16.39a1.167 1.167 0 0 1 1.166-1.166Zm19.834 10.5H15.666v8.166h18.666v-8.166Zm0-4.667v-3.5H15.666v3.5h18.666Z"/></svg>
